img/benefits/1.svg

<svg width="297" height="270" fill="none" xmlns="http://www.w3.org/2000/svg"><g filter="url(#filter0_d)"><path d="M212.027 158.455c-.62 3.192-1.58 6.259-2.882 9.11-6.816 15.307-22.247 25.966-40.094 25.966h-29.963c-18.157 0-34.053-11.093-40.56-27.019a41.295 41.295 0 01-1.92-6.012c2.633 1.395 5.639 3.285 9.202 4.834 20.915 9.11 29.777-5.484 59.925-.682 16.329 2.603 21.256 8.088 31.388 4.338 7.685-2.788 10.194-7.963 14.904-10.535z" fill="#C7B28A"/><path d="M212.832 150.894a43.192 43.192 0 01-.836 7.561c-.62 3.191-1.581 6.259-2.882 9.11-6.321 3.563-13.416 5.236-15.276 5.639-13.571 3.037-16.484-.836-35.849-.681-22.589.185-24.417 5.484-37.864 2.881-7.809-1.487-15.679-4.927-21.628-8.893a41.243 41.243 0 01-1.921-6.011 40.081 40.081 0 01-1.115-7.282 6.527 6.527 0 01-.063-.774 64.152 64.152 0 01-.123-4.245c5.05-1.829 13.943-4.06 29.436-6.662 0 0 .061 0 .154-.031a2.73 2.73 0 01.527-.062c2.014-.31 8.552-1.24 18.126-1.829 16.299-.991 41.335-1.022 67.703 4.586.465.093 1.023.217 1.58.403.062 2.169.062 4.245.031 6.29z" fill="#C7B28A"/><path d="M212.833 150.894c-5.454 1.271-6.693 1.333-8.335 1.178-2.696-.279-2.262-.837-5.547-1.302-3.346-.526-8.552-1.456-11.185 1.395-1.488 1.611-1.426 3.687-3.192 4.307-1.828.682-3.005-1.178-5.825-1.828-3.873-.899-5.732 1.673-10.845 2.819-4.338.961-5.019-.464-11.402-.557-8.428-.093-8.583 2.355-16.175 2.448-7.467.092-7.808-2.324-16.763-2.665-7.467-.31-8.427 1.27-13.881.96-5.05-.341-10.442-2.169-14.284-4.369a6.526 6.526 0 01-.062-.774 64.083 64.083 0 01-.124-4.245c-.031-1.24-.03-2.448-.03-3.719 5.267-1.084 14.779-1.642 29.621-3.005a2.73 2.73 0 01.527-.062c5.329-.496 11.371-1.116 18.126-1.829 4.059-.464 8.428-.96 13.045-1.518 0 0 36.593-4.555 56.052 1.673.124 1.612.186 3.254.186 4.834.124 2.138.124 4.214.093 6.259z" fill="#837D78"/><path d="M169.05 194.337h-29.962c-17.972 0-34.549-11.031-41.304-27.485-.867-2.2-1.518-4.183-1.952-6.104a41.444 41.444 0 01-1.115-7.406 6.081 6.081 0 01-.062-.805c-.093-1.24-.124-2.603-.124-4.245-.031-1.209-.031-2.448-.031-3.719.031-1.704.062-3.408.155-5.112 1.053-20.451 6.91-40.871 16.949-59.029a.683.683 0 01.496-.372c14.563-3.47 29.404-5.205 44.215-5.05 13.882.093 27.794 1.797 41.397 5.05a.977.977 0 01.526.403 152.884 152.884 0 018.831 22.682c3.191 10.535 5.267 21.566 6.166 32.783.093 1.302.186 2.603.217 3.904.124 1.581.186 3.223.186 4.865.062 1.921.062 3.966.031 6.29a44.88 44.88 0 01-.837 7.716 42.683 42.683 0 01-2.943 9.296c-7.22 15.958-23.208 26.338-40.839 26.338zM112.781 81.424c-9.822 17.879-15.554 37.958-16.577 58.068-.093 1.704-.124 3.377-.155 5.05 0 1.24 0 2.448.031 3.688 0 1.611.031 2.974.124 4.214 0 .279.031.496.062.712.155 2.51.527 4.896 1.085 7.189.433 1.859 1.053 3.78 1.89 5.888 6.507 15.864 22.526 26.524 39.847 26.524h29.962c17.011 0 32.473-10.009 39.382-25.502a41.188 41.188 0 002.82-8.955c.465-2.386.744-4.896.806-7.406h.774-.774c.031-2.293.031-4.338-.031-6.259 0-1.611-.062-3.222-.186-4.803-.031-1.301-.124-2.571-.217-3.873a153.157 153.157 0 00-6.104-32.442c-2.324-7.654-5.206-15.09-8.583-22.124a184.226 184.226 0 00-40.684-4.927 186.42 186.42 0 00-43.472 4.958z" fill="#D2D2D2"/><path d="M154.921 85.646c-14.253 0-28.63-1.054-42.759-3.099a.765.765 0 01-.651-.867.75.75 0 01.868-.651c14.47 2.107 29.095 3.191 43.813 3.099 13.726-.063 27.576-1.085 41.179-3.1.465-.061.805.249.867.652a.748.748 0 01-.65.867 299.212 299.212 0 01-41.427 3.099h-1.24z" fill="#D2D2D2"/><path d="M151.915 111.046c9.698 13.665 7.901 29.561 7.467 32.877l-10.318 3.904a200.36 200.36 0 01-9.76-34.147 204.31 204.31 0 01-2.324-15.183c3.532 1.704 9.791 5.299 14.935 12.549z" fill="#92B69A"/><path d="M149.034 148.229a.403.403 0 01-.372-.248 200.609 200.609 0 01-9.76-34.208 209.515 209.515 0 01-2.324-15.214c0-.124.031-.28.155-.372.124-.093.248-.093.403-.031 6.011 2.82 11.216 7.22 15.089 12.673 9.079 12.797 8.274 27.423 7.53 33.124a.426.426 0 01-.248.31l-10.318 3.904a.524.524 0 01-.155.062zm-11.588-49.05a189.1 189.1 0 002.231 14.47 199.132 199.132 0 009.605 33.713l9.76-3.688c.744-5.763 1.364-19.955-7.405-32.349-3.718-5.206-8.583-9.389-14.191-12.147z" fill="#45594F"/><path d="M165.549 110.24c-9.699 13.665-7.901 29.561-7.468 32.876l10.318 3.905a200.264 200.264 0 009.761-34.147 204.91 204.91 0 002.324-15.183c-3.564 1.673-9.792 5.298-14.935 12.549z" fill="#92B69A"/><path d="M168.4 147.424c-.124-.031-10.473-3.936-10.473-3.936a.426.426 0 01-.248-.309c-.775-5.702-1.549-20.327 7.529-33.125 3.873-5.453 9.079-9.853 15.09-12.673a.381.381 0 01.403.031c.124.093.186.217.155.372a209.443 209.443 0 01-2.324 15.214 201.43 201.43 0 01-9.76 34.209.43.43 0 01-.372.217zm-9.977-4.586l9.76 3.687c4.152-10.907 7.405-22.217 9.605-33.713a189.13 189.13 0 002.231-14.47 38.426 38.426 0 00-14.16 12.115c-8.8 12.426-8.149 26.617-7.436 32.381z" fill="#45594F"/><path d="M166.634 137.818c-.093 0-9.048-2.2-9.048-2.2-.217-.062-.341-.248-.279-.465.062-.217.248-.341.465-.279l8.955 2.2c.217.062.341.248.279.465a.39.39 0 01-.372.279z" fill="#45594F"/><path d="M163.999 112.843a186.782 186.782 0 011.209 34.395c-3.161-.186-6.321-.341-9.482-.527-1.797-7.932-3.563-19.738-2.293-33.868.651-7.251 2.665-20.823 5.268-20.853 2.634-.031 4.555 14.966 5.298 20.853z" fill="#92B69A"/><path d="M165.208 147.61c-.031 0-9.512-.527-9.512-.527-.186 0-.31-.124-.372-.31-2.541-11.31-3.315-22.744-2.293-33.992.186-2.169 2.045-21.163 5.671-21.194 2.107 0 3.749 6.135 5.67 21.163l-.372.062.372-.062a188.38 188.38 0 011.208 34.457c0 .248-.155.403-.372.403zm-9.171-1.271l8.8.465a185.597 185.597 0 00-1.24-33.93c-2.169-16.949-3.842-20.512-4.895-20.512-1.891.03-3.998 10.659-4.896 20.512-.992 11.062-.248 22.341 2.231 33.465z" fill="#45594F"/><path d="M154.735 149.252c-2.045.341-4.927.558-8.211-.248-9.854-2.448-16.175-13.355-17.91-22.743-.496-2.665-.929-6.972.062-12.364 4.493 3.873 9.915 9.296 15.245 16.609 4.957 6.817 8.397 13.355 10.814 18.746z" fill="#92B69A"/><path d="M151.203 149.934c-1.611 0-3.223-.186-4.772-.589-10.039-2.51-16.453-13.696-18.188-23.054-.744-4.028-.744-8.242.062-12.518a.493.493 0 01.248-.31c.124-.031.279-.031.371.062a97.71 97.71 0 0115.276 16.671c4.214 5.794 7.87 12.146 10.876 18.839.062.124.031.248 0 .341-.062.093-.155.186-.279.186-1.208.279-2.417.372-3.594.372zm-22.248-35.293c-.65 3.935-.619 7.808.062 11.558 1.705 9.109 7.933 20.017 17.631 22.433 2.417.62 4.958.713 7.56.341-2.943-6.476-6.476-12.611-10.597-18.22a98.309 98.309 0 00-14.656-16.112z" fill="#45594F"/><path d="M159.103 149.252c2.045.341 4.927.558 8.212-.248 9.853-2.448 16.174-13.355 17.909-22.743.496-2.665.929-6.972-.062-12.364-4.493 3.873-9.915 9.296-15.245 16.609a102.587 102.587 0 00-10.814 18.746z" fill="#92B69A"/><path d="M162.636 149.934c-1.177 0-2.386-.093-3.594-.31a.451.451 0 01-.279-.186c-.062-.093-.062-.217 0-.341 2.975-6.662 6.631-13.014 10.876-18.839 4.493-6.166 9.636-11.775 15.307-16.671a.33.33 0 01.372-.062.427.427 0 01.247.31c.775 4.245.806 8.459.062 12.519-1.735 9.357-8.18 20.543-18.188 23.053-1.611.341-3.191.527-4.803.527zm-2.974-.992c2.572.372 5.112.279 7.529-.34 9.699-2.417 15.927-13.324 17.631-22.434.681-3.719.712-7.623.062-11.558-5.423 4.741-10.349 10.163-14.656 16.082a105.56 105.56 0 00-10.566 18.25z" fill="#45594F"/><path d="M157.802 122.697c-7.003 9.853-5.702 21.318-5.392 23.704 2.479.93 4.958 1.89 7.437 2.82a145.804 145.804 0 007.033-24.603 142.917 142.917 0 001.674-10.938c-2.541 1.177-7.034 3.78-10.752 9.017z" fill="#92B69A"/><path d="M159.879 149.593c-.124-.031-7.592-2.851-7.592-2.851a.426.426 0 01-.248-.31c-.557-4.121-1.115-14.718 5.454-23.952 2.788-3.935 6.569-7.127 10.906-9.172a.381.381 0 01.403.031c.124.093.186.217.155.372a158.385 158.385 0 01-1.673 10.969 144.627 144.627 0 01-7.065 24.665c-.031.155-.186.248-.34.248zm-7.096-3.471l6.879 2.603a145.325 145.325 0 006.878-24.169 137.662 137.662 0 001.581-10.225 27.002 27.002 0 00-9.978 8.614c-6.29 8.862-5.856 18.994-5.36 23.177z" fill="#45594F"/><path d="M196.472 161.337c0 .619-.496 1.115-1.116 1.115a1.11 1.11 0 01-1.115-1.115c0-.62.496-1.116 1.115-1.116.62 0 1.116.496 1.116 1.116zm-6.29 3.036a.682.682 0 100-1.363.682.682 0 000 1.363zm-5.019.961a2.355 2.355 0 11-2.355-2.355c1.301.031 2.355 1.085 2.355 2.355zm9.295-8.087a1.426 1.426 0 10-.002-2.852 1.426 1.426 0 00.002 2.852zm-73.001 10.473a1.487 1.487 0 11-1.487-1.488c.837 0 1.487.651 1.487 1.488zm15.771 3.471c0 1.549-1.921 2.819-4.276 2.819-2.355 0-4.276-1.27-4.276-2.819 0-1.55 1.921-2.82 4.276-2.82 2.355.031 4.276 1.27 4.276 2.82z" fill="#C7B28A"/></g><defs><filter id="filter0_d" x="89.5" y="75" width="129.189" height="129.337" filterUnits="userSpaceOnUse" color-interpolation-filters="sRGB"><feFlood flood-opacity="0" result="BackgroundImageFix"/><feColorMatrix in="SourceAlpha" values="0 0 0 0 0 0 0 0 0 0 0 0 0 0 0 0 0 0 127 0" result="hardAlpha"/><feOffset dy="5"/><feGaussianBlur stdDeviation="2.5"/><feColorMatrix values="0 0 0 0 0 0 0 0 0 0 0 0 0 0 0 0 0 0 0.25 0"/><feBlend in2="BackgroundImageFix" result="effect1_dropShadow"/><feBlend in="SourceGraphic" in2="effect1_dropShadow" result="shape"/></filter></defs></svg>

<svg width="297" height="270" viewBox="0 0 297 270" fill="none" xmlns="http://www.w3.org/2000/svg">
<g filter="url(#filter0_d)">
<path d="M212.027 158.455C211.407 161.647 210.447 164.714 209.145 167.565C202.329 182.872 186.898 193.531 169.051 193.531H139.088C120.931 193.531 105.035 182.438 98.5284 166.512C97.7538 164.59 97.1031 162.607 96.6074 160.5C99.2411 161.895 102.247 163.785 105.81 165.334C126.725 174.444 135.587 159.85 165.735 164.652C182.064 167.255 186.991 172.74 197.123 168.99C204.808 166.202 207.317 161.027 212.027 158.455Z" fill="#C7B28A"/>
<path d="M212.832 150.894C212.77 153.497 212.491 156.007 211.996 158.455C211.376 161.646 210.415 164.714 209.114 167.565C202.793 171.128 195.698 172.801 193.838 173.204C180.267 176.241 177.354 172.368 157.989 172.523C135.4 172.708 133.572 178.007 120.125 175.404C112.316 173.917 104.446 170.477 98.497 166.511C97.7224 164.59 97.0717 162.607 96.576 160.5C95.9873 158.145 95.6155 155.728 95.4606 153.218C95.4296 152.97 95.3985 152.691 95.3985 152.444C95.3056 151.049 95.2747 149.624 95.2747 148.199C100.325 146.37 109.218 144.139 124.711 141.537C124.711 141.537 124.772 141.537 124.865 141.506C125.02 141.475 125.206 141.444 125.392 141.444C127.406 141.134 133.944 140.204 143.518 139.615C159.817 138.624 184.853 138.593 211.221 144.201C211.686 144.294 212.244 144.418 212.801 144.604C212.863 146.773 212.863 148.849 212.832 150.894Z" fill="#C7B28A"/>
<path d="M212.833 150.894C207.379 152.165 206.14 152.227 204.498 152.072C201.802 151.793 202.236 151.235 198.951 150.77C195.605 150.244 190.399 149.314 187.766 152.165C186.278 153.776 186.34 155.852 184.574 156.472C182.746 157.154 181.569 155.294 178.749 154.644C174.876 153.745 173.017 156.317 167.904 157.463C163.566 158.424 162.885 156.999 156.502 156.906C148.074 156.813 147.919 159.261 140.327 159.354C132.86 159.446 132.519 157.03 123.564 156.689C116.097 156.379 115.137 157.959 109.683 157.649C104.633 157.308 99.2411 155.48 95.3989 153.28C95.3679 153.032 95.337 152.753 95.337 152.506C95.244 151.111 95.213 149.686 95.213 148.261C95.182 147.021 95.1821 145.813 95.1821 144.542C100.45 143.458 109.962 142.9 124.804 141.537C124.959 141.506 125.145 141.475 125.331 141.475C130.66 140.979 136.702 140.359 143.457 139.646C147.516 139.182 151.885 138.686 156.502 138.128C156.502 138.128 193.095 133.573 212.554 139.801C212.678 141.413 212.74 143.055 212.74 144.635C212.864 146.773 212.864 148.849 212.833 150.894Z" fill="#837D78"/>
<path d="M169.05 194.337H139.088C121.116 194.337 104.539 183.306 97.7844 166.852C96.9168 164.652 96.2661 162.669 95.8323 160.748C95.2436 158.362 94.8717 155.883 94.7168 153.342C94.6858 153.125 94.6549 152.816 94.6549 152.537C94.5619 151.297 94.5309 149.934 94.5309 148.292C94.4999 147.083 94.5 145.844 94.5 144.573C94.531 142.869 94.5619 141.165 94.6549 139.461C95.7084 119.01 101.565 98.5899 111.604 80.4321C111.697 80.2462 111.883 80.0912 112.1 80.0603C126.663 76.5898 141.504 74.8546 156.315 75.0095C170.197 75.1025 184.109 76.8067 197.712 80.0603C197.928 80.1222 198.114 80.2772 198.238 80.4631C201.74 87.6828 204.714 95.3054 207.069 103.145C210.26 113.68 212.336 124.711 213.235 135.928C213.328 137.23 213.421 138.531 213.452 139.832C213.576 141.413 213.638 143.055 213.638 144.697C213.7 146.618 213.7 148.663 213.669 150.987C213.607 153.621 213.328 156.224 212.832 158.703C212.213 161.894 211.221 165.024 209.889 167.999C202.669 183.957 186.681 194.337 169.05 194.337ZM112.781 81.4237C102.959 99.3026 97.2267 119.382 96.2041 139.492C96.1112 141.196 96.0802 142.869 96.0493 144.542C96.0493 145.782 96.0492 146.99 96.0802 148.23C96.0802 149.841 96.1112 151.204 96.2041 152.444C96.2041 152.723 96.2351 152.94 96.2661 153.156C96.421 155.666 96.7928 158.052 97.3506 160.345C97.7844 162.204 98.4041 164.125 99.2407 166.233C105.748 182.097 121.767 192.757 139.088 192.757H169.05C186.061 192.757 201.523 182.748 208.432 167.255C209.703 164.404 210.663 161.368 211.252 158.3C211.717 155.914 211.996 153.404 212.058 150.894H212.832H212.058C212.089 148.601 212.089 146.556 212.027 144.635C212.027 143.024 211.965 141.413 211.841 139.832C211.81 138.531 211.717 137.261 211.624 135.959C210.756 124.866 208.68 113.928 205.52 103.517C203.196 95.8632 200.314 88.4265 196.937 81.3927C183.582 78.2321 169.887 76.5898 156.253 76.4659C141.783 76.4039 127.096 78.0462 112.781 81.4237Z" fill="#D2D2D2"/>
<path d="M154.921 85.6458C140.668 85.6458 126.291 84.5923 112.162 82.5472C111.728 82.4852 111.449 82.0824 111.511 81.6796C111.573 81.2458 111.945 80.9669 112.379 81.0289C126.849 83.1359 141.474 84.2204 156.192 84.1275C169.918 84.0655 183.768 83.043 197.371 81.0289C197.836 80.9669 198.176 81.2768 198.238 81.6796C198.3 82.1134 198.022 82.4852 197.588 82.5472C183.892 84.5303 169.98 85.5838 156.161 85.6458C155.758 85.6458 155.355 85.6458 154.921 85.6458Z" fill="#D2D2D2"/>
<path d="M151.915 111.046C161.613 124.711 159.816 140.607 159.382 143.923C155.943 145.224 152.503 146.525 149.064 147.827C145.377 138.221 141.814 126.787 139.304 113.68C138.281 108.382 137.538 103.3 136.98 98.4969C140.512 100.201 146.771 103.796 151.915 111.046Z" fill="#92B69A"/>
<path d="M149.034 148.229C148.879 148.229 148.724 148.136 148.662 147.981C144.417 136.95 141.133 125.424 138.902 113.773C137.941 108.753 137.167 103.64 136.578 98.5587C136.578 98.4347 136.609 98.2798 136.733 98.1868C136.857 98.0939 136.981 98.0939 137.136 98.1559C143.147 100.976 148.352 105.376 152.225 110.829C161.304 123.626 160.499 138.252 159.755 143.953C159.724 144.108 159.631 144.201 159.507 144.263L149.189 148.167C149.127 148.198 149.065 148.229 149.034 148.229ZM137.446 99.1784C138.003 104.012 138.747 108.877 139.677 113.649C141.876 125.114 145.099 136.455 149.282 147.362L159.042 143.674C159.786 137.911 160.406 123.719 151.637 111.325C147.919 106.119 143.054 101.936 137.446 99.1784Z" fill="#45594F"/>
<path d="M165.549 110.24C155.85 123.905 157.648 139.801 158.081 143.116C161.521 144.418 164.96 145.719 168.399 147.021C172.087 137.415 175.65 125.981 178.16 112.874C179.182 107.575 179.926 102.494 180.484 97.6908C176.92 99.364 170.692 102.989 165.549 110.24Z" fill="#92B69A"/>
<path d="M168.4 147.424C168.276 147.393 157.927 143.488 157.927 143.488C157.803 143.426 157.71 143.333 157.679 143.179C156.904 137.477 156.13 122.852 165.208 110.054C169.081 104.601 174.287 100.201 180.298 97.3811C180.422 97.3191 180.577 97.3191 180.701 97.4121C180.825 97.505 180.887 97.629 180.856 97.7839C180.267 102.866 179.493 107.978 178.532 112.998C176.301 124.649 173.017 136.145 168.772 147.207C168.71 147.331 168.555 147.424 168.4 147.424ZM158.423 142.838L168.183 146.525C172.335 135.618 175.588 124.308 177.788 112.812C178.718 108.04 179.462 103.175 180.019 98.3417C174.411 101.13 169.515 105.314 165.859 110.457C157.059 122.883 157.71 137.074 158.423 142.838Z" fill="#45594F"/>
<path d="M166.634 137.818C166.541 137.818 157.586 135.618 157.586 135.618C157.369 135.556 157.245 135.37 157.307 135.153C157.369 134.936 157.555 134.812 157.772 134.874L166.727 137.074C166.944 137.136 167.068 137.322 167.006 137.539C166.944 137.725 166.789 137.818 166.634 137.818Z" fill="#45594F"/>
<path d="M163.999 112.843C165.827 127.066 165.673 138.995 165.208 147.238C162.047 147.052 158.887 146.897 155.726 146.711C153.929 138.779 152.163 126.973 153.433 112.843C154.084 105.592 156.098 92.0205 158.701 91.9895C161.335 91.9586 163.256 106.956 163.999 112.843Z" fill="#92B69A"/>
<path d="M165.208 147.61C165.177 147.61 155.696 147.083 155.696 147.083C155.51 147.083 155.386 146.959 155.324 146.773C152.783 135.463 152.009 124.029 153.031 112.781C153.217 110.612 155.076 91.6179 158.702 91.5869C160.809 91.5869 162.451 97.7222 164.372 112.75L164 112.812L164.372 112.75C165.828 124.153 166.231 135.742 165.58 147.207C165.58 147.455 165.425 147.61 165.208 147.61ZM156.037 146.339L164.837 146.804C165.456 135.525 165.053 124.122 163.597 112.874C161.428 95.925 159.755 92.3616 158.702 92.3616C156.811 92.3926 154.704 103.021 153.806 112.874C152.814 123.936 153.558 135.215 156.037 146.339Z" fill="#45594F"/>
<path d="M154.735 149.252C152.69 149.593 149.808 149.81 146.524 149.004C136.67 146.556 130.349 135.649 128.614 126.261C128.118 123.596 127.685 119.289 128.676 113.897C133.169 117.77 138.591 123.193 143.921 130.506C148.878 137.323 152.318 143.861 154.735 149.252Z" fill="#92B69A"/>
<path d="M151.203 149.934C149.592 149.934 147.98 149.748 146.431 149.345C136.392 146.835 129.978 135.649 128.243 126.291C127.499 122.263 127.499 118.049 128.305 113.773C128.336 113.649 128.429 113.525 128.553 113.463C128.677 113.432 128.832 113.432 128.924 113.525C134.595 118.421 139.738 124.029 144.2 130.196C148.414 135.99 152.07 142.342 155.076 149.035C155.138 149.159 155.107 149.283 155.076 149.376C155.014 149.469 154.921 149.562 154.797 149.562C153.589 149.841 152.38 149.934 151.203 149.934ZM128.955 114.641C128.305 118.576 128.336 122.449 129.017 126.199C130.722 135.308 136.95 146.216 146.648 148.632C149.065 149.252 151.606 149.345 154.208 148.973C151.265 142.497 147.732 136.362 143.611 130.753C139.273 124.773 134.347 119.382 128.955 114.641Z" fill="#45594F"/>
<path d="M159.103 149.252C161.148 149.593 164.03 149.81 167.315 149.004C177.168 146.556 183.489 135.649 185.224 126.261C185.72 123.596 186.153 119.289 185.162 113.897C180.669 117.77 175.247 123.193 169.917 130.506C164.96 137.323 161.489 143.861 159.103 149.252Z" fill="#92B69A"/>
<path d="M162.636 149.934C161.459 149.934 160.25 149.841 159.042 149.624C158.918 149.593 158.825 149.531 158.763 149.438C158.701 149.345 158.701 149.221 158.763 149.097C161.738 142.435 165.394 136.083 169.639 130.258C174.132 124.092 179.275 118.483 184.946 113.587C185.039 113.494 185.194 113.463 185.318 113.525C185.441 113.587 185.534 113.68 185.565 113.835C186.34 118.08 186.371 122.294 185.627 126.354C183.892 135.711 177.447 146.897 167.439 149.407C165.828 149.748 164.248 149.934 162.636 149.934ZM159.662 148.942C162.234 149.314 164.774 149.221 167.191 148.602C176.89 146.185 183.118 135.278 184.822 126.168C185.503 122.449 185.534 118.545 184.884 114.61C179.461 119.351 174.535 124.773 170.228 130.692C166.138 136.362 162.574 142.497 159.662 148.942Z" fill="#45594F"/>
<path d="M157.802 122.697C150.799 132.55 152.1 144.015 152.41 146.401C154.889 147.331 157.368 148.291 159.847 149.221C162.511 142.28 165.052 134.069 166.88 124.618C167.624 120.807 168.151 117.15 168.554 113.68C166.013 114.857 161.52 117.46 157.802 122.697Z" fill="#92B69A"/>
<path d="M159.879 149.593C159.755 149.562 152.287 146.742 152.287 146.742C152.163 146.68 152.07 146.587 152.039 146.432C151.482 142.311 150.924 131.714 157.493 122.48C160.281 118.545 164.062 115.353 168.399 113.308C168.523 113.246 168.678 113.246 168.802 113.339C168.926 113.432 168.988 113.556 168.957 113.711C168.523 117.398 167.966 121.086 167.284 124.68C165.673 133.077 163.287 141.382 160.219 149.345C160.188 149.5 160.033 149.593 159.879 149.593ZM152.783 146.122L159.662 148.725C162.636 140.917 164.96 132.767 166.54 124.556C167.191 121.21 167.718 117.77 168.121 114.331C164.154 116.314 160.715 119.289 158.143 122.945C151.853 131.807 152.287 141.939 152.783 146.122Z" fill="#45594F"/>
<path d="M196.472 161.337C196.472 161.956 195.976 162.452 195.356 162.452C194.737 162.452 194.241 161.956 194.241 161.337C194.241 160.717 194.737 160.221 195.356 160.221C195.976 160.221 196.472 160.717 196.472 161.337Z" fill="#C7B28A"/>
<path d="M190.182 164.373C190.559 164.373 190.864 164.068 190.864 163.691C190.864 163.315 190.559 163.01 190.182 163.01C189.806 163.01 189.501 163.315 189.501 163.691C189.501 164.068 189.806 164.373 190.182 164.373Z" fill="#C7B28A"/>
<path d="M185.163 165.334C185.163 166.635 184.109 167.689 182.808 167.689C181.507 167.689 180.453 166.635 180.453 165.334C180.453 164.033 181.507 162.979 182.808 162.979C184.109 163.01 185.163 164.064 185.163 165.334Z" fill="#C7B28A"/>
<path d="M194.458 157.247C195.245 157.247 195.883 156.608 195.883 155.821C195.883 155.034 195.245 154.396 194.458 154.396C193.67 154.396 193.032 155.034 193.032 155.821C193.032 156.608 193.67 157.247 194.458 157.247Z" fill="#C7B28A"/>
<path d="M121.457 167.72C121.457 168.525 120.807 169.207 119.97 169.207C119.165 169.207 118.483 168.556 118.483 167.72C118.483 166.914 119.134 166.232 119.97 166.232C120.807 166.232 121.457 166.883 121.457 167.72Z" fill="#C7B28A"/>
<path d="M137.228 171.191C137.228 172.74 135.307 174.01 132.952 174.01C130.597 174.01 128.676 172.74 128.676 171.191C128.676 169.641 130.597 168.371 132.952 168.371C135.307 168.402 137.228 169.641 137.228 171.191Z" fill="#C7B28A"/>
</g>
<defs>
<filter id="filter0_d" x="89.5" y="75" width="129.189" height="129.337" filterUnits="userSpaceOnUse" color-interpolation-filters="sRGB">
<feFlood flood-opacity="0" result="BackgroundImageFix"/>
<feColorMatrix in="SourceAlpha" type="matrix" values="0 0 0 0 0 0 0 0 0 0 0 0 0 0 0 0 0 0 127 0" result="hardAlpha"/>
<feOffset dy="5"/>
<feGaussianBlur stdDeviation="2.5"/>
<feColorMatrix type="matrix" values="0 0 0 0 0 0 0 0 0 0 0 0 0 0 0 0 0 0 0.25 0"/>
<feBlend mode="normal" in2="BackgroundImageFix" result="effect1_dropShadow"/>
<feBlend mode="normal" in="SourceGraphic" in2="effect1_dropShadow" result="shape"/>
</filter>
</defs>
</svg>
